X: 1
T:In the Jailhouse Now
C:Arr. Jay Buckey
S:jaybuckey.com, Tom Skinner
M:4/4
L:1/4
K:G
"G"B B/B/ B B | B/A/ B/d/-d2 |
w:1.~I had a friend named Ram-blin' Bob.__
B/B/- B/B/ B2 | B/A B/d/- d3
w:He used to steal, gam-ble and rob.__
G | e d3 B G | e d3 B G | "C"c4 | z2 z z/
w:He thought he was the smart-test guy a-round.
G/ | c c c c | c/e/- e2 z/2
w:But, I found out last Mon-day
G/2 | c c c c | c/e/- e2 z
w:that Bob got locked up Sun-day.
B | "A7"A B ^c d | e ^c B A | "D"d4 || z/
w:They've got him in the jail-house way down-town.
d/ ^c/d/ e d | "G"G4 | z/ g/ g/g/ a g | c4 | z2 z/
w:He's in the jail-house now. He's in the jail-house now.
d/ e | "D"f f f e | d2 z
w:Well, I told him once or twice
d/e | f f f e | d d/c/- c2- | c/
w:to stop play-in' cards and shoot-in' dice.__
d/ ^c/d/ e d | "G"G4 |]
w:He's in the jail-house now.
%
W:2. Bob liked to play his poker,
W:Pinochle, whist, and euchre,
W:But shootin dice was his favorite game.
W:He got throw'd in jail
W:With nobody to go his bail.
W:The judge done said that he refused to the fine.
W:He's in the jailhouse now. He's in the jailhouse now.
W:Well, I told him once or twice
W:To stop playin cards and shootin dice.
W:He's in the jailhouse now.
W:
W:3. Well I went out last Tuesday.
W:I met a girl named Suzie.
W:I said I was the swellest guy around.
W:Well, we got to spendin my money,
W:And she started to callin me honey.
W:We took in every cabaret in town.
W:We're in the jailhouse now. We're in the jailhouse now.
W:Well, I told that judge right to his face
W:I don't like to see this place.
W:We're in the jailhouse now.

%---------------------------------------------------------------------

